docs/svg/medium_icon.svg

<svg width="44" height="33" viewBox="0 0 44 33" version="1.1" xmlns="http://www.w3.org/2000/svg" xmlns:xlink="http://www.w3.org/1999/xlink">
<title>medium_icon</title>
<desc>Created using Figma</desc>
<g id="Canvas" transform="translate(-4262 -4934)">
<g id="medium_icon">
<g id="Group">
<g id="Vector">
<use xlink:href="#path0_fill" transform="translate(4262 4934)" fill="#FFFFFF"/>
</g>
</g>
</g>
</g>
<defs>
<path id="path0_fill" d="M 43.7464 4.71473L 41.3325 4.71473C 40.704 4.71473 39.0593 5.40155 39.0593 5.98624L 39.0593 27.2191C 39.0593 27.8053 40.704 28.2858 41.3325 28.2858L 43.7464 28.2858L 43.7464 33L 28.1226 33L 28.1226 28.2858L 31.2482 28.2858L 31.2482 6.28536L 30.7042 6.28536L 23.1833 32.9999L 17.3602 32.9999L 9.93657 6.28536L 9.3743 6.28536L 9.3743 28.2857L 12.4985 28.2857L 12.4985 32.9999L 0 32.9999L 0 28.2857L 1.73346 28.2857C 2.41398 28.2857 3.12425 27.8053 3.12425 27.219L 3.12425 5.98624C 3.12425 5.40146 2.41407 4.71473 1.73346 4.71473L 0 4.71473L 0 1.47099e-07L 16.1976 1.47099e-07L 21.4863 18.8569L 21.6287 18.8569L 26.9695 1.47099e-07L 43.7464 1.47099e-07L 43.7464 4.71473Z"/>
</defs>
</svg>

<svg width="44" height="33" viewBox="0 0 44 33" xmlns="http://www.w3.org/2000/svg" xmlns:xlink="http://www.w3.org/1999/xlink"><title>medium_icon</title><desc>Created using Figma</desc><use xlink:href="#a" fill="#FFF"/><defs><path id="a" d="M43.746 4.715h-2.413c-.629 0-2.274.687-2.274 1.271V27.22c0 .586 1.645 1.067 2.274 1.067h2.413V33H28.123v-4.714h3.125v-22h-.544L23.184 33H17.36L9.937 6.285h-.563v22h3.124V33H0v-4.714h1.733c.681 0 1.391-.48 1.391-1.067V5.986c0-.585-.71-1.271-1.39-1.271H0V0h16.198l5.288 18.857h.143L26.969 0h16.777v4.715z"/></defs></svg>
